X:1
T:La Petite Polka, Sancerrois
Z:Dave Holland <dave@biff.org.uk>
S:St Chartier festival 2002
R:Polka
M:2/4
L:1/8
Q:1/8=132
K:C
Gc c>d|cB d2|Ad d>e|dc ec|\
Gc c>d|cB d2|d>e dc|1 BA Gc:|2 BA c2||
g2 eg|gg fd|f2 df|ff ec|\
e2 ce|ee dB|d2 Bd|dd c2:|
<end>
<start>
